src/assets/icons/expand.svg

<?xml version="1.0" standalone="no"?><!DOCTYPE svg PUBLIC "-//W3C//DTD SVG 1.1//EN" "http://www.w3.org/Graphics/SVG/1.1/DTD/svg11.dtd"><svg t="1649412162995" class="icon" viewBox="0 0 1024 1024" version="1.1" xmlns="http://www.w3.org/2000/svg" p-id="9744" xmlns:xlink="http://www.w3.org/1999/xlink" width="32" height="32"><defs><style type="text/css">@font-face { font-family: feedback-iconfont; src: url("//at.alicdn.com/t/font_1031158_u69w8yhxdu.woff2?t=1630033759944") format("woff2"), url("//at.alicdn.com/t/font_1031158_u69w8yhxdu.woff?t=1630033759944") format("woff"), url("//at.alicdn.com/t/font_1031158_u69w8yhxdu.ttf?t=1630033759944") format("truetype"); }
</style></defs><path d="M149.333333 789.333333a21.333333 21.333333 0 0 0-21.333333 21.333334v21.333333a21.333333 21.333333 0 0 0 21.333333 21.333333h725.333334a21.333333 21.333333 0 0 0 21.333333-21.333333v-21.333333a21.333333 21.333333 0 0 0-21.333333-21.333334H149.333333z m298.666667-202.666666a21.333333 21.333333 0 0 0-21.333333 21.333333v21.333333a21.333333 21.333333 0 0 0 21.333333 21.333334h426.666667a21.333333 21.333333 0 0 0 21.333333-21.333334v-21.333333a21.333333 21.333333 0 0 0-21.333333-21.333333H448zM138.986667 385.92a8.853333 8.853333 0 0 0-14.4 6.912v246.186667c0 7.424 8.597333 11.52 14.4 6.912l156.309333-123.093334a8.746667 8.746667 0 0 0 0-13.802666zM448 373.333333a21.333333 21.333333 0 0 0-21.333333 21.333334v21.333333a21.333333 21.333333 0 0 0 21.333333 21.333333h426.666667a21.333333 21.333333 0 0 0 21.333333-21.333333v-21.333333a21.333333 21.333333 0 0 0-21.333333-21.333334H448zM149.333333 170.666667a21.333333 21.333333 0 0 0-21.333333 21.333333v21.333333a21.333333 21.333333 0 0 0 21.333333 21.333334h725.333334a21.333333 21.333333 0 0 0 21.333333-21.333334V192a21.333333 21.333333 0 0 0-21.333333-21.333333H149.333333z" fill="#000000" p-id="9745"></path></svg>

<svg class="icon" viewBox="0 0 1024 1024" xmlns="http://www.w3.org/2000/svg" width="32" height="32"><path d="M149.333 789.333A21.333 21.333 0 00128 810.667V832a21.333 21.333 0 0021.333 21.333h725.334A21.333 21.333 0 00896 832v-21.333a21.333 21.333 0 00-21.333-21.334H149.333zM448 586.667A21.333 21.333 0 00426.667 608v21.333A21.333 21.333 0 00448 650.667h426.667A21.333 21.333 0 00896 629.333V608a21.333 21.333 0 00-21.333-21.333H448zM138.987 385.92a8.853 8.853 0 00-14.4 6.912v246.187c0 7.424 8.597 11.52 14.4 6.912l156.309-123.094a8.747 8.747 0 000-13.802zM448 373.333a21.333 21.333 0 00-21.333 21.334V416A21.333 21.333 0 00448 437.333h426.667A21.333 21.333 0 00896 416v-21.333a21.333 21.333 0 00-21.333-21.334H448zM149.333 170.667A21.333 21.333 0 00128 192v21.333a21.333 21.333 0 0021.333 21.334h725.334A21.333 21.333 0 00896 213.333V192a21.333 21.333 0 00-21.333-21.333H149.333z"/></svg>
